icons/1_Primary/MEGA.svg

<svg width="1024" height="1024" fill="none" xmlns="http://www.w3.org/2000/svg"><g clip-path="url(#a)"><path d="M512 1024c282.77 0 512-229.23 512-512S794.77 0 512 0 0 229.23 0 512s229.23 512 512 512Z" fill="#FF837D"/><path d="M512 256.13c-141.33 0-255.87 114.55-255.87 255.88 0 141.33 114.54 255.87 255.87 255.87 141.33 0 255.88-114.55 255.88-255.88 0-141.33-114.55-255.87-255.88-255.87Zm132.84 346.36a7.904 7.904 0 0 1-4.865 7.32 7.91 7.91 0 0 1-3.025.61h-33.47a7.907 7.907 0 0 1-7.93-7.89V499.55a.998.998 0 0 0-1.199-.976c-.194.04-.372.136-.511.276L523 569.64a15.822 15.822 0 0 1-22.24 0L430 498.84a1.003 1.003 0 0 0-1.71.7v102.95a7.904 7.904 0 0 1-4.865 7.32 7.91 7.91 0 0 1-3.025.61H387a7.907 7.907 0 0 1-7.93-7.89v-181a7.922 7.922 0 0 1 7.93-7.93h22.94a16.002 16.002 0 0 1 11.19 4.69l88.06 88.06a3.842 3.842 0 0 0 5.43.12l.12-.12 88.06-88.06a15.723 15.723 0 0 1 11.2-4.7h22.92a7.926 7.926 0 0 1 7.329 4.894c.398.962.602 1.994.601 3.036l-.01 180.97Z" fill="#fff"/></g><defs><clipPath id="a"><path fill="#fff" d="M0 0h1024v1024H0z"/></clipPath></defs></svg>

<svg width="1024" height="1024" viewBox="0 0 1024 1024" fill="none" xmlns="http://www.w3.org/2000/svg">
<g clip-path="url(#clip0_2_2790)">
<path d="M512 1024C794.77 1024 1024 794.77 1024 512C1024 229.23 794.77 0 512 0C229.23 0 0 229.23 0 512C0 794.77 229.23 1024 512 1024Z" fill="#FF837D"/>
<path d="M512 256.13C370.67 256.13 256.13 370.68 256.13 512.01C256.13 653.34 370.67 767.88 512 767.88C653.33 767.88 767.88 653.33 767.88 512C767.88 370.67 653.33 256.13 512 256.13ZM644.84 602.49C644.843 603.529 644.641 604.558 644.245 605.519C643.85 606.479 643.27 607.353 642.537 608.089C641.805 608.825 640.934 609.41 639.975 609.81C639.017 610.21 637.989 610.417 636.95 610.42H603.48C602.441 610.423 601.412 610.221 600.451 609.826C599.491 609.43 598.617 608.85 597.881 608.117C597.144 607.385 596.56 606.514 596.16 605.555C595.76 604.597 595.552 603.569 595.55 602.53V499.55C595.549 499.352 595.49 499.159 595.379 498.995C595.268 498.831 595.112 498.704 594.929 498.629C594.746 498.554 594.545 498.535 594.351 498.574C594.157 498.614 593.979 498.71 593.84 498.85L523 569.64C520.039 572.566 516.043 574.208 511.88 574.208C507.717 574.208 503.721 572.566 500.76 569.64L430 498.84C429.861 498.7 429.683 498.604 429.489 498.564C429.295 498.525 429.094 498.544 428.911 498.619C428.728 498.694 428.571 498.821 428.461 498.985C428.35 499.149 428.291 499.342 428.29 499.54V602.49C428.293 603.529 428.091 604.558 427.695 605.519C427.3 606.479 426.72 607.353 425.987 608.089C425.255 608.825 424.384 609.41 423.425 609.81C422.467 610.21 421.439 610.417 420.4 610.42H387C385.961 610.423 384.932 610.221 383.971 609.826C383.011 609.43 382.137 608.85 381.401 608.117C380.664 607.385 380.08 606.514 379.68 605.555C379.28 604.597 379.073 603.569 379.07 602.53V421.53C379.069 420.488 379.273 419.456 379.671 418.494C380.069 417.531 380.653 416.656 381.39 415.92C382.126 415.183 383.001 414.599 383.964 414.201C384.926 413.803 385.958 413.599 387 413.6H409.94C414.141 413.634 418.16 415.318 421.13 418.29L509.19 506.35C509.538 506.714 509.956 507.007 510.417 507.21C510.879 507.413 511.376 507.524 511.88 507.535C512.384 507.546 512.886 507.458 513.356 507.275C513.826 507.092 514.255 506.819 514.62 506.47L514.74 506.35L602.8 418.29C604.262 416.803 606.005 415.622 607.928 414.815C609.851 414.008 611.915 413.592 614 413.59H636.92C637.962 413.589 638.993 413.793 639.956 414.191C640.919 414.589 641.794 415.173 642.53 415.91C643.267 416.646 643.851 417.521 644.249 418.484C644.647 419.446 644.851 420.478 644.85 421.52L644.84 602.49Z" fill="white"/>
</g>
<defs>
<clipPath id="clip0_2_2790">
<rect width="1024" height="1024" fill="white"/>
</clipPath>
</defs>
</svg>
